X: 1161
T: The Boys Of The Lough
B: ralph
B: to learn
M:4/4
Q: 1/4=100
K:Dmajor
V:1 
dB|:"D"AF (3FFF A2 AB|"D"defd "G"efdB|"D"AF (3FFF ABAF|"A"EDEF E2 FG|
"D"AF (3FFF A2 AB|"D"defd "G"efdB|"D"AF (3FFF ABAF|1 "A"EDEF "D"D2 dB:|2 "A"EDEF "D"D2 de||
|:"D"faag fgfe|"G"dBBA GBdB|"D"AF (3FFF ABde|"A"fdgf e2 fg|
"D"abag fgfe|"G"dBBA GBdB|"D"AF (3FFF ABAF|1 "A"EDEF "D"D2 de:|2 "A"EDEF "D"D2 dB||
% abcbook-tune_id 63143e50135a09af4995c61c


% abcbook-boost 0
% abcbook-tablature 
% abcbook-transpose 
% abcbook-lastupdated 1665962973321
% abcbook-soundfonts 
% abcbook-repeats 3


